X:400
T:a Minuet
A:Wyresdale, Lancashire
B:E and J Winder, 1835-41
L:1/8
M:3/4
O:England
Z:Richard Robinson 
%%TUNEURL: http://www.leeds.ac.uk/music/Info/RRTuneBk/gettune/00000ec5.html
%%ID:00000ec5
K:E min
e^d e2f2 | B2 (^d3^c/d/) | e2 EFGA | BABc B2 |\
e^d e2f2 | B2 (^d3^c/d/) | e2 EFGA | B4 ::
gf g2a2     | d2 (f3e/f/) | g2 fedc | B2GABc | \
d2 (d3c/d/) | edcBAG      | A2 F4   | A6      |
BA B2g2     | AG A2f2     | GF G2e2 | F2A2 B2 | \
cBAGFE      | ^d4 e2      | G2F2 F2 | E4 ||
